dist/svg/u1F5C2.svg

<?xml version="1.0" encoding="UTF-8"?><svg id="a" xmlns="http://www.w3.org/2000/svg" viewBox="0 0 40 40"><g><rect x="4.167" y="7.941" width="31.667" height="20" rx="2.85" ry="2.85" fill="#d0d5da"/><path d="M20.167,7.941h11.786v-1.881c0-1.105-.895-2-2-2h-7.786c-1.105,0-2,.895-2,2v1.881Z" fill="#3182f6" fill-rule="evenodd"/></g><g><rect x="4.167" y="10.941" width="31.667" height="20" rx="2.85" ry="2.85" fill="#e5e9ee"/><path d="M12.167,10.941h11.786v-1.881c0-1.105-.895-2-2-2h-7.786c-1.105,0-2,.895-2,2v1.881Z" fill="#00bc79" fill-rule="evenodd"/></g><rect x="0" width="40" height="40" fill="none"/><g><path d="M4.167,13.941v18.15c0,1.574,1.276,2.85,2.85,2.85h25.967c1.574,0,2.85-1.276,2.85-2.85v-15.3c0-1.574-1.276-2.85-2.85-2.85H4.167Z" fill="#ffc33a" fill-rule="evenodd"/><path d="M4.167,13.941H15.952v-1.881c0-1.105-.895-2-2-2H6.167c-1.105,0-2,.895-2,2v1.881Z" fill="#ec4452" fill-rule="evenodd"/></g></svg>

<svg id="Layer_1" data-name="Layer 1" xmlns="http://www.w3.org/2000/svg" viewBox="0 0 40 40"><defs><style>.cls-1{fill:#d0d5da;}.cls-2{fill:#3182f6;}.cls-2,.cls-4,.cls-6,.cls-7{fill-rule:evenodd;}.cls-3{fill:#e5e9ee;}.cls-4{fill:#00bc79;}.cls-5{fill:none;}.cls-6{fill:#ffc33a;}.cls-7{fill:#ec4452;}</style></defs><rect class="cls-1" x="4.167" y="7.941" width="31.667" height="20" rx="2.85"/><path class="cls-2" d="M20.167,7.941H31.952V6.059a2,2,0,0,0-2-2H22.167a2,2,0,0,0-2,2Z"/><rect class="cls-3" x="4.167" y="10.941" width="31.667" height="20" rx="2.85"/><path class="cls-4" d="M12.167,10.941H23.952V9.059a2,2,0,0,0-2-2H14.167a2,2,0,0,0-2,2Z"/><rect class="cls-5" width="40" height="40"/><path class="cls-6" d="M4.167,13.941v18.15a2.85,2.85,0,0,0,2.85,2.85H32.983a2.85,2.85,0,0,0,2.85-2.85v-15.3a2.85,2.85,0,0,0-2.85-2.85Z"/><path class="cls-7" d="M4.167,13.941H15.952V12.059a2,2,0,0,0-2-2H6.167a2,2,0,0,0-2,2Z"/></svg>
